X: 41520
T: Una's New Gown
R: jig
M: 6/8
K: Gmajor
|:(3FED|EFA BAF|dFF AFD|EFA BAF|FEE E2 F|
EFA BAF|dFF EFA|dfe dAF|FEE E:|
|:(3Bcd|dAF Ade|fed e2 d/e/|fed edB|AdG FED|
EFA BAF|dFF Ade|f/e/d/f/e/c/ dAF|FEE E:|

